icons/op-align-right-24.svg

<svg width="24" height="24" viewBox="0 0 24 24" fill="none" xmlns="http://www.w3.org/2000/svg">
<path d="M9 7.09091H20V6H9V7.09091ZM4 9.27273H20V8.18182H4V9.27273ZM8 11.4545H20V10.3636H8V11.4545ZM5 13.6364H20V12.5455H5V13.6364ZM9 15.8182H20V14.7273H9V15.8182ZM6 18H20V16.9091H6V18Z" fill="black"/>
</svg>

<svg xmlns="http://www.w3.org/2000/svg" width="24" height="24" viewBox="0 0 24 24"><path d="M9 7.091h11V6H9v1.091ZM4 9.273h16V8.182H4v1.091Zm4 2.181h12v-1.09H8v1.09Zm-3 2.182h15v-1.09H5v1.09Zm4 2.182h11v-1.091H9v1.091ZM6 18h14v-1.091H6V18Z"/></svg>
